!!!OTL: Die Stiefmutter
!!!ARE: Europa, Mitteleuropa, Deutschland
!!!SCT: A0096
!!!YEM: Copyright 1995, estate of Helmut Schaffrath.
**kern
*ICvox
*Ivox
*M3/4
*k[b-]
*F:
{4c
=1
4f
4f
8g
8b-
=2
4a
4f}
{4a
=3
4.g
8f
8e
8g
=4
4f
4r}
{4c
=5
4f
4f
8g
8b-
=6
4a
4f}
{4a
=7
4.g
8f
4e
=8
2f}
==
!!!AGN: Romanze, Ballade, Lied
!! Aus Erk, Liederhalle, No. 2.
!!!ONB: ESAC (Essen Associative Code) Database: ALTDEU
!!!AMT: simple triple
!!!AIN: vox
!!!EED: Helmut Schaffrath
!!!EEV: 1.0
*-
